X: 31937
T: Pearl O'Shaughnessy's
R: barndance
M: 4/4
K: Dmajor
Bc|dBed B2g2|fege c3d|f2ed f2ed|B2A2 B2Bc|
dBed B2g2|fege c3d|f2ed ^cdef|g2b2 g2:|
|:dg|b2b2 bd'c'b|a2e2 e2ag|f2ed f2ed|B2A2 B2Bg|
b2b2 bd'c'b|a2e2 e2ag|f2ed ^cdef|g2b2 g2:|
df|a2a2 a^gba|f2f2 fedf|a2g2 e2c2|b2a2 fedf|
a2a2 a^gba|f2f2 fedf|a2g2 e2ce|d2d2 d2:|
|:ag|f<ad2 dfaf|g<be2 e2gf|edcB Acfe|dAce b2ag|
f<ad2 dfaf|g<be2 e2gf|(3ege cB Acfe|d2d2 d2:|

